X:84
M:2/4
L:1/8
K:D
| Ad Bc/B/ | Ad fd | e2 ed | ea fd | 
| e2 ef | af g2 | f2 fd | fe dc | 
e2 ef | af g2 | fa ef | d2 d2 :|| 

